pix_core/i/switchrole.svg

<svg preserveAspectRatio="xMinYMid meet" viewBox="0 0 640 512" xmlns="http://www.w3.org/2000/svg"><path d="m64 64a64 64 0 1 1 128 0 64 64 0 1 1 -128 0zm-38.1 169.4c3.4-41.5 38.1-73.4 79.7-73.4h44.8c27 0 51 13.4 65.5 34.1-2.7 1.9-5.2 4-7.5 6.3l-64 64c-21.9 21.9-21.9 57.3 0 79.2l47.6 47.6v72.8c0 26.5-21.5 48-48 48h-32c-26.5 0-48-21.5-48-48v-115.7c-26.5-9.5-44.7-35.8-42.2-65.6zm422.1-169.4a64 64 0 1 1 128 0 64 64 0 1 1 -128 0zm-16.4 136.4c-2.3-2.3-4.9-4.4-7.5-6.3 14.5-20.7 38.6-34.1 65.5-34.1h44.8c41.6 0 76.3 31.9 79.7 73.4l4.1 49.3c2.5 29.8-15.7 56.1-42.2 65.6v115.7c0 26.5-21.5 48-48 48h-32c-26.5 0-48-21.5-48-48v-72.8l47.6-47.6c21.9-21.9 21.9-57.3 0-79.2zm-159.6 39.6v32h96v-32c0-9.7 5.8-18.5 14.8-22.2s19.3-1.7 26.2 5.2l64 64c9.4 9.4 9.4 24.6 0 33.9l-64 64c-6.9 6.9-17.2 8.9-26.2 5.2s-14.8-12.5-14.8-22.2v-31.9h-96v32c0 9.7-5.8 18.5-14.8 22.2s-19.3 1.7-26.2-5.2l-64-64c-9.4-9.4-9.4-24.6 0-33.9l64-64c6.9-6.9 17.2-8.9 26.2-5.2s14.8 12.5 14.8 22.2z" fill="#fff"/></svg>

<svg xmlns="http://www.w3.org/2000/svg" viewBox="0 0 640 512" preserveAspectRatio="xMinYMid meet"><!--!Font Awesome Free 6.5.2 by @fontawesome - https://fontawesome.com License - https://fontawesome.com/license/free Copyright 2024 Fonticons, Inc.--><path fill="#fff" d="M64 64a64 64 0 1 1 128 0A64 64 0 1 1 64 64zM25.9 233.4C29.3 191.9 64 160 105.6 160h44.8c27 0 51 13.4 65.5 34.1c-2.7 1.9-5.2 4-7.5 6.3l-64 64c-21.9 21.9-21.9 57.3 0 79.2L192 391.2V464c0 26.5-21.5 48-48 48H112c-26.5 0-48-21.5-48-48V348.3c-26.5-9.5-44.7-35.8-42.2-65.6l4.1-49.3zM448 64a64 64 0 1 1 128 0A64 64 0 1 1 448 64zM431.6 200.4c-2.3-2.3-4.9-4.4-7.5-6.3c14.5-20.7 38.6-34.1 65.5-34.1h44.8c41.6 0 76.3 31.9 79.7 73.4l4.1 49.3c2.5 29.8-15.7 56.1-42.2 65.6V464c0 26.5-21.5 48-48 48H496c-26.5 0-48-21.5-48-48V391.2l47.6-47.6c21.9-21.9 21.9-57.3 0-79.2l-64-64zM272 240v32h96V240c0-9.7 5.8-18.5 14.8-22.2s19.3-1.7 26.2 5.2l64 64c9.4 9.4 9.4 24.6 0 33.9l-64 64c-6.9 6.9-17.2 8.9-26.2 5.2s-14.8-12.5-14.8-22.2V336H272v32c0 9.7-5.8 18.5-14.8 22.2s-19.3 1.7-26.2-5.2l-64-64c-9.4-9.4-9.4-24.6 0-33.9l64-64c6.9-6.9 17.2-8.9 26.2-5.2s14.8 12.5 14.8 22.2z"/></svg>
